X:212
T:I'll Fly Away
C:arranged by Lee Marcus
N:Transcribed by Lee Marcus
R:bluegrass
L:1/8
Q:1/4=250
M:4/4
K:A
zA E2 EF A2 | B=c ^ce =cB AF | E2 EF A2 {B}c2 | z2 B2 c2 e2 | Bc ce =cB AF | A2 EF AF =FE | 
D2 =c^c =cB AF | A2 EF AF EC | A,2 E2 EF A2 | B=c ^ce =cB AF | E2 EF A2 {B}c2 | 
z2 B2 c2 e2 | Bc ce =cB A2 | {B}c2 e2 e2 ef | ef af ed =c^c | A2 AB AF EC | A,2 AB c2 d2 | 
d/e/e ef e2 c2 | e2 d/e/e ef ef | =gf gf e=c ^cf | e=c ^cf ec =cB | A2 Ac dB AF | 
D2 d2 fd =c^c | =cB AF =GF EC | A,2 E2 EF A2 | B=c ^ce =cB AF | E2 EF A2 {B}c2 | 
z2 B2 c2 e2 | c/e/e ef e=c ^cB | AF =GB AF GB | AF EC A,B, CE | A2 F/A/A AB ce | 
a8 | 


